X: 10949
T: Drummond Castle
R: jig
M: 6/8
K: Adorian
|:A2A a2a|age g3|cBc edc|Bdg dBG|
A2A a2a|age g3|e/f/ge deg|1 edB A2G:|2 edB A2B||
|:c2c cBc|d2d ded|c2c edc|Bdg dBG|
cBc edc|deg a3|e/f/ge deg|1 edB A2B:|2 edB A2G||

